flaticon/interaction/user-28.svg

<svg xmlns="http://www.w3.org/2000/svg" width="32" height="32" viewBox="0 0 24 24">
    <path d="M 23.886719 23.101562 L 21.460938 20.5625 C 22.171875 19.78125 22.605469 18.75 22.605469 17.613281 C 22.605469 15.195312 20.636719 13.222656 18.214844 13.222656 C 15.796875 13.222656 13.828125 15.191406 13.828125 17.613281 C 13.828125 20.035156 15.796875 22.003906 18.214844 22.003906 C 19.210938 22.003906 20.121094 21.667969 20.859375 21.109375 L 23.300781 23.664062 C 23.378906 23.746094 23.488281 23.789062 23.59375 23.789062 C 23.695312 23.789062 23.796875 23.75 23.875 23.675781 C 24.035156 23.519531 24.042969 23.265625 23.886719 23.101562 Z M 14.640625 17.613281 C 14.640625 15.640625 16.246094 14.035156 18.214844 14.035156 C 20.1875 14.035156 21.792969 15.640625 21.792969 17.613281 C 21.792969 19.585938 20.1875 21.191406 18.214844 21.191406 C 16.246094 21.191406 14.640625 19.585938 14.640625 17.613281 Z M 14.640625 17.613281"/>
    <path d="M 11.183594 21.761719 C 10.925781 21.761719 10.667969 21.75 10.414062 21.730469 C 10.367188 21.726562 10.324219 21.726562 10.28125 21.722656 C 10.023438 21.699219 9.765625 21.667969 9.511719 21.625 C 9.5 21.625 9.488281 21.621094 9.476562 21.621094 C 8.941406 21.53125 8.410156 21.398438 7.894531 21.226562 C 7.878906 21.21875 7.863281 21.214844 7.847656 21.210938 C 7.589844 21.121094 7.339844 21.027344 7.089844 20.917969 C 7.089844 20.917969 7.085938 20.917969 7.085938 20.917969 C 6.851562 20.816406 6.617188 20.703125 6.390625 20.585938 C 6.363281 20.570312 6.332031 20.554688 6.300781 20.539062 C 6.09375 20.429688 5.890625 20.308594 5.691406 20.183594 C 5.632812 20.144531 5.574219 20.109375 5.515625 20.070312 C 5.328125 19.949219 5.148438 19.824219 4.96875 19.691406 C 4.953125 19.675781 4.933594 19.660156 4.914062 19.648438 C 4.929688 19.640625 4.941406 19.632812 4.953125 19.625 L 8.171875 17.871094 C 8.722656 17.570312 9.066406 16.992188 9.066406 16.363281 L 9.066406 14.898438 L 8.972656 14.785156 C 8.964844 14.773438 8.085938 13.703125 7.753906 12.257812 L 7.714844 12.09375 L 7.578125 12.003906 C 7.382812 11.878906 7.265625 11.667969 7.265625 11.4375 L 7.265625 9.996094 C 7.265625 9.808594 7.34375 9.632812 7.492188 9.5 L 7.625 9.378906 L 7.625 7.113281 L 7.621094 7.0625 C 7.621094 7.050781 7.5 6.074219 8.1875 5.289062 C 8.777344 4.617188 9.785156 4.277344 11.183594 4.277344 C 12.578125 4.277344 13.582031 4.613281 14.171875 5.28125 C 14.859375 6.058594 14.746094 7.054688 14.746094 7.0625 L 14.742188 9.378906 L 14.875 9.5 C 15.019531 9.632812 15.101562 9.808594 15.101562 9.996094 L 15.101562 11.441406 C 15.101562 11.730469 14.90625 11.992188 14.621094 12.082031 C 14.40625 12.144531 14.285156 12.375 14.351562 12.589844 C 14.417969 12.804688 14.648438 12.921875 14.863281 12.855469 C 15.492188 12.664062 15.914062 12.09375 15.914062 11.441406 L 15.914062 9.996094 C 15.914062 9.644531 15.785156 9.304688 15.554688 9.035156 L 15.554688 7.136719 C 15.574219 6.925781 15.652344 5.734375 14.789062 4.753906 C 14.039062 3.898438 12.828125 3.464844 11.183594 3.464844 C 9.539062 3.464844 8.328125 3.898438 7.578125 4.753906 C 6.714844 5.734375 6.789062 6.925781 6.8125 7.136719 L 6.8125 9.035156 C 6.582031 9.304688 6.449219 9.644531 6.449219 9.996094 L 6.449219 11.441406 C 6.449219 11.886719 6.652344 12.304688 6.996094 12.585938 C 7.324219 13.878906 8.003906 14.855469 8.253906 15.183594 L 8.253906 16.363281 C 8.253906 16.695312 8.074219 17 7.78125 17.15625 L 4.566406 18.910156 C 4.464844 18.96875 4.363281 19.03125 4.257812 19.105469 C 2.144531 17.207031 0.8125 14.453125 0.8125 11.394531 C 0.8125 5.675781 5.464844 1.023438 11.183594 1.023438 C 16.902344 1.023438 21.554688 5.675781 21.554688 11.394531 C 21.554688 11.617188 21.734375 11.800781 21.960938 11.800781 C 22.183594 11.800781 22.367188 11.617188 22.367188 11.394531 C 22.367188 5.226562 17.347656 0.210938 11.183594 0.210938 C 5.015625 0.210938 0 5.226562 0 11.394531 C 0 14.652344 1.402344 17.585938 3.628906 19.632812 L 3.617188 19.640625 L 3.980469 19.949219 C 4.003906 19.96875 4.03125 19.984375 4.054688 20.003906 C 4.246094 20.164062 4.445312 20.316406 4.648438 20.460938 C 4.714844 20.507812 4.78125 20.558594 4.847656 20.601562 C 5.066406 20.753906 5.289062 20.894531 5.515625 21.027344 C 5.566406 21.058594 5.617188 21.085938 5.664062 21.113281 C 5.914062 21.257812 6.167969 21.390625 6.429688 21.515625 C 6.449219 21.523438 6.46875 21.53125 6.488281 21.539062 C 7.335938 21.933594 8.246094 22.222656 9.191406 22.394531 C 9.21875 22.398438 9.242188 22.40625 9.269531 22.410156 C 9.5625 22.460938 9.859375 22.5 10.160156 22.527344 C 10.199219 22.53125 10.234375 22.53125 10.269531 22.535156 C 10.574219 22.5625 10.875 22.578125 11.183594 22.578125 C 11.410156 22.578125 11.589844 22.394531 11.589844 22.171875 C 11.589844 21.945312 11.40625 21.761719 11.183594 21.761719 Z M 11.183594 21.761719"/>
</svg>

<svg xmlns="http://www.w3.org/2000/svg" width="32" height="32" viewBox="0 0 24 24">
    <path d="M23.887 23.102l-2.426-2.54a4.363 4.363 0 0 0 1.144-2.949 4.397 4.397 0 0 0-4.39-4.39 4.394 4.394 0 0 0-4.387 4.39 4.394 4.394 0 0 0 4.387 4.39 4.36 4.36 0 0 0 2.644-.894l2.442 2.555a.408.408 0 0 0 .574.012.407.407 0 0 0 .012-.574zm-9.246-5.489a3.582 3.582 0 0 1 3.574-3.578 3.583 3.583 0 0 1 3.578 3.578 3.583 3.583 0 0 1-3.578 3.578 3.582 3.582 0 0 1-3.574-3.578zm0 0"/>
    <path d="M11.184 21.762c-.258 0-.516-.012-.77-.032-.047-.003-.09-.003-.133-.007a10.099 10.099 0 0 1-.77-.098c-.011 0-.023-.004-.034-.004a10.525 10.525 0 0 1-1.582-.394c-.016-.008-.032-.012-.047-.016-.258-.09-.508-.184-.758-.293h-.004a11.334 11.334 0 0 1-.695-.332c-.028-.016-.059-.031-.09-.047a9.52 9.52 0 0 1-.61-.355c-.058-.04-.117-.075-.175-.114a10.48 10.48 0 0 1-.547-.379.295.295 0 0 0-.055-.043c.016-.007.027-.015.04-.023l3.218-1.754c.55-.3.894-.879.894-1.508v-1.465l-.093-.113c-.008-.012-.887-1.082-1.22-2.527l-.038-.164-.137-.09a.67.67 0 0 1-.312-.566V9.995c0-.187.078-.363.226-.496l.133-.121V7.113l-.004-.05c0-.012-.121-.989.566-1.774.59-.672 1.598-1.012 2.997-1.012 1.394 0 2.398.336 2.988 1.004.687.778.574 1.774.574 1.782l-.004 2.316.133.121a.672.672 0 0 1 .227.496v1.445a.68.68 0 0 1-.48.641.404.404 0 1 0 .241.773 1.473 1.473 0 0 0 1.051-1.414V9.996a1.48 1.48 0 0 0-.36-.96v-1.9c.02-.21.098-1.402-.765-2.382-.75-.856-1.96-1.29-3.605-1.29s-2.856.434-3.606 1.29c-.863.98-.789 2.172-.766 2.383v1.898c-.23.27-.363.61-.363.961v1.445c0 .446.203.864.547 1.145a7.567 7.567 0 0 0 1.258 2.598v1.18c0 .331-.18.636-.473.792L4.566 18.91a4 4 0 0 0-.308.195 10.343 10.343 0 0 1-3.446-7.71c0-5.72 4.653-10.372 10.372-10.372 5.718 0 10.37 4.653 10.37 10.372a.406.406 0 1 0 .813 0C22.367 5.227 17.347.21 11.184.21 5.016.21 0 5.227 0 11.395c0 3.257 1.402 6.19 3.629 8.238l-.012.008.363.308c.024.02.051.035.075.055.191.16.39.312.593.457.067.047.133.098.2.14.218.153.441.294.668.426.05.032.101.059.148.086.25.145.504.278.766.403l.058.023a11.13 11.13 0 0 0 2.703.856c.028.003.051.011.079.015.293.05.59.09.89.117.04.004.074.004.11.008.304.027.605.043.914.043a.406.406 0 0 0 .406-.406.41.41 0 0 0-.406-.41zm0 0"/>
</svg>
